X: 3
T:High Level Bridge
R:Hornpipe
Z:added by Alf 
M:4/4
L:1/8
K:G
BA|(3GAB DG B,DGB|dgBd GBAG|(3ABc FA DFAc|ed^cd ed (3=cBA|
(3GAB DG B,DGB dgBd GBAG|EFGA Bc^cd|(3fed (3cBA G2:|
K:D
AG|FdAd FdAd|(3FED FA dAFA|BdGd BdGd|(3BAG Bd gdBd|
ceAe ceAe|(3cBA ce gece|(3dcd fd gece|dcde d2:|
